X:1
T:Minuet in G
%%score { 1 | 2 }
L:1/8
M:3/4
K:G
V:1 treble nm="Piano" snm="Pno."
V:2 bass 
V:1
 d2 GA Bc | d2 G2 G2 | e2 cd ef | g2 G2 G2 | c2 dc BA | B2 cB AG | F2 GA BG | B2 A4 | z2 d2 GA | %9
 Bc d2 G2 | G2 e2 cd | ef g2 G2 | G2 c2 dc | BA B2 cB | AG A2 BA |1 GF G4 :|2 GF G4 |: b2 ga bg | %18
 a2 de fd | g2 ef gd | _d2 Bd A2 | AB ^cd ef | g2 f2 e2 | f2 A2 ^c2 | d6 | d2 GF G2 | e2 GF G2 | %27
 d2 c2 B2 | AG FG A2 | DE FG AB | c2 B2 A2 | Bd G2 F2 | G6 :| %33
V:2
 G,4 A,2 | B,6 | C6 | B,6 | A,6 | G,6 | D2 B,2 G,2 | D4 D,C | B,A, B,4 | A,2 G,2 B,2 | G,2 C4- | %11
 C2 B,2 CB, | A,G, A,4 | _G,2 =G,4 | B,2 C2 D2 |1 D,2 G,2 G,,2 :|2 D,2 G,2 G,,2 |: G,6 | F,6 | %19
 E,2 G,2 E,2 | A,4 A,,2 | A,6 | B,2 D2 ^C2 | D2 F,2 A,2 | D2 D,2 C2 | B,2 D2 B,2 | C2 E2 C2 | %27
 B,2 A,2 G,2 | D6 | D,4 F,2 | E,2 G,2 F,2 | G,2 B,,2 D,2 | G,2 D,2 G,,2 :| %33

